X:619
T:Miss Douglas of Springwood Park
R:Strathspey
B:The Athole Collection
M:C
L:1/8
K:D
G|D>EG>A B<G G>B|D>EF>A ~B2 B>g|D>EG>A B<G G>B|
A>B c/B/A/G/ ~E2E:|
B|d>ed>B g>dB>G|d<ed<B B<d d>g|d>ed>B g>dB>G|A>B c/B/A/G/ ~E2 E>B|
d>ed>B g>dB>G|d>ed>B B<d d>g|g<be<g d<gB<g|A>B c/B/A/G/ ~E2 E>G||

